X:2023
T:Bucks of Oranmore, The
T:Hearty Bucks, The
R:Reel
C:Trad.
O:Ireland
M:4/4
L:1/8
Q:1/8=320
K:D
|"D"A2FA A2dB|A2FA "Em"BEE2|"D"A2FA A2Bd|egfd "Bm"edBd|
"D"A2FA A2dB|A2FA "Em"BEE2|"D"DEFG AFAB|defd "Bm"edBd||
|"D"ADFD A2dB|ADFD "Em"BEE2|"D"ADFD A2Bd|egfd "Bm"edBd|
"D"ADFD A2dB|ADFD "Em"BEE2|"D"DEFG AFAB|defd "Em"efge||
|"D"a2fd "Em"edef|"D"a2fd "Em"ed B2|"D"a2fd "Em"edef|"D"gefd "Em"edB2|
"D"a2fd "Em"edef|"D"a2fd "Em"edB2|"D"faaf "Bm"bfaf|"D"gefd "Bm"edBd||
|"D"f2df "Em"e2de|"D"f2df "Bm"edBd|"D"f2df "Em"e2de|"D"gefd "Bm"edBd|
"D"f2df "Em"e2de|"D"f2df "Bm"edBd|"D"faaf "Bm"bfaf|"D"gefd "Bm"edBd||
|"D"Adfd edfd|Adfd "Bm"edBd|"D"Adfd edfd|"D"gefd "Bm"edBd|
"D"Adfd edfd|Adfd "Em"edB2|"D"faaf "Bm"bfaf|"D"gefd "Bm"edBd|]

